packages/kaspersky-hexa-ui-icons/src/iconsSVGs/24/SubNod1.svg

<svg width="16" height="16" viewBox="0 0 16 16" fill="none" xmlns="http://www.w3.org/2000/svg">
<path fill-rule="evenodd" clip-rule="evenodd" d="M3.33343 7.3166C2.95604 7.3166 2.6501 7.62254 2.6501 7.99993C2.6501 8.37733 2.95604 8.68327 3.33343 8.68327C3.71083 8.68327 4.01676 8.37733 4.01676 7.99993C4.01676 7.62254 3.71083 7.3166 3.33343 7.3166ZM1.3501 7.99993C1.3501 6.90457 2.23807 6.0166 3.33343 6.0166C4.4288 6.0166 5.31676 6.90457 5.31676 7.99993C5.31676 9.0953 4.4288 9.98327 3.33343 9.98327C2.23807 9.98327 1.3501 9.0953 1.3501 7.99993ZM6.01677 7.99995C6.01677 7.64096 6.30778 7.34995 6.66677 7.34995H14.0001C14.3591 7.34995 14.6501 7.64096 14.6501 7.99995C14.6501 8.35893 14.3591 8.64995 14.0001 8.64995H6.66677C6.30778 8.64995 6.01677 8.35893 6.01677 7.99995Z" fill="black"/>
</svg>

<svg xmlns="http://www.w3.org/2000/svg" width="16" height="16" fill="none" viewBox="0 0 16 16"><path fill="#000" fill-rule="evenodd" d="M3.3334 7.3166a.6833.6833 0 1 0 0 1.3667.6833.6833 0 0 0 0-1.3667m-1.9833.6833c0-1.0953.888-1.9833 1.9833-1.9833s1.9834.888 1.9834 1.9833-.888 1.9834-1.9834 1.9834c-1.0953 0-1.9833-.888-1.9833-1.9834m4.6667 0a.65.65 0 0 1 .65-.65H14a.65.65 0 1 1 0 1.3H6.6668a.65.65 0 0 1-.65-.65" clip-rule="evenodd"/></svg>
